X: 27094
T: Miss Leyeer's
R: hornpipe
M: 4/4
K: Dmajor
|:AG|FDFA dgfe|dgfe dcBA|(3Bcd ef gfed|e2ED EFAG|
FDFA dgfe|dgfe dcBA|(3Bcd AF GBAG|F2D2 D2:|
|:(3ABc|d2fd eA~A2|gfed eA~A2|(3Bcd ef gfed|e2ED EFAG|
FDFA dgfe|dgfe dcBA|(3Bcd AF GBAG|F2D2 D2:|
|:AG|F2EF DFAd|c2Bc Acef|gfed dfed|c2AG AdAG|
FDFA dgfe|dgfe dcBA|(3Bcd AF GBAG|F2D2 D2:|

